icons/undo.svg

<?xml version="1.0" standalone="no"?><!-- Generator: Gravit.io --><svg xmlns="http://www.w3.org/2000/svg" xmlns:xlink="http://www.w3.org/1999/xlink" width="96" height="96"><path d=" M 12.003195835474202 55.14738426752 L 12.003195835474202 40 C 12.003195835474202 38.9 11.603195835474201 37.9 10.803195835474202 37.2 C 10.103195835474201 36.4 9.103195835474201 36 8.003195835474202 36 C 6.903195835474202 36 5.903195835474202 36.4 5.203195835474202 37.2 C 4.403195835474202 37.9 4.003195835474202 38.9 4.003195835474202 40 L 4.003195835474202 62 C 4.003195835474202 63.6 4.603195835474201 65.1 5.8031958354742015 66.2 C 6.903195835474202 67.4 8.403195835474202 68 10.003195835474202 68 L 32.0031958354742 68 C 33.1031958354742 68 34.1031958354742 67.6 34.8031958354742 66.8 C 35.6031958354742 66.1 36.0031958354742 65.1 36.0031958354742 64 C 36.0031958354742 62.9 35.6031958354742 61.9 34.8031958354742 61.2 C 34.1031958354742 60.4 33.1031958354742 60 32.0031958354742 60 L 18.3151282831842 60 C 20.57776306861811 56.976324682030715 22.996357482540237 54.04404037150943 25.603195835474203 51.3 C 28.303195835474202 48.4 31.303195835474202 45.7 34.5031958354742 43.4 C 37.9031958354742 41 41.6031958354742 39.1 45.5031958354742 37.7 C 48.9031958354742 36.6 52.4031958354742 36 56.0031958354742 36 C 59.4031958354742 36 62.8031958354742 36.7 65.90319583547421 38 C 68.8031958354742 39.2 71.5031958354742 41 73.6031958354742 43.3 C 75.8031958354742 45.6 77.7031958354742 48.2 79.1031958354742 51.1 C 81.2031958354742 55.5 82.90319583547421 60.2 84.1031958354742 65 C 84.40319583547421 66 85.0031958354742 66.9 85.90319583547421 67.4 C 86.90319583547421 68 87.90319583547421 68.1 89.0031958354742 67.9 C 90.0031958354742 67.6 90.90319583547421 67 91.40319583547421 66.1 C 92.0031958354742 65.1 92.1031958354742 64.1 91.90319583547421 63 C 90.5031958354742 57.7 88.7031958354742 52.5 86.2031958354742 47.6 C 84.5031958354742 44 82.2031958354742 40.7 79.40319583547421 37.8 C 76.5031958354742 34.7 72.90319583547421 32.2 69.0031958354742 30.6 C 64.90319583547421 28.9 60.4031958354742 28 56.0031958354742 28 C 51.6031958354742 28 47.1031958354742 28.7 42.9031958354742 30.2 C 38.3031958354742 31.8 33.9031958354742 34 29.803195835474202 36.9 C 26.2031958354742 39.5 22.803195835474202 42.5 19.7031958354742 45.9 C 16.98785691465525 48.818989339880375 14.41076297111594 51.9223053161336 12.003195835474202 55.14738426752 Z " fill="#454545" stroke="none"/><mask id="_mask_MXCrWpzJPAyXwgyG8DVaVyBl5Ivdu2Ie"><path d=" M 12.003195835474202 55.14738426752 L 12.003195835474202 40 C 12.003195835474202 38.9 11.603195835474201 37.9 10.803195835474202 37.2 C 10.103195835474201 36.4 9.103195835474201 36 8.003195835474202 36 C 6.903195835474202 36 5.903195835474202 36.4 5.203195835474202 37.2 C 4.403195835474202 37.9 4.003195835474202 38.9 4.003195835474202 40 L 4.003195835474202 62 C 4.003195835474202 63.6 4.603195835474201 65.1 5.8031958354742015 66.2 C 6.903195835474202 67.4 8.403195835474202 68 10.003195835474202 68 L 32.0031958354742 68 C 33.1031958354742 68 34.1031958354742 67.6 34.8031958354742 66.8 C 35.6031958354742 66.1 36.0031958354742 65.1 36.0031958354742 64 C 36.0031958354742 62.9 35.6031958354742 61.9 34.8031958354742 61.2 C 34.1031958354742 60.4 33.1031958354742 60 32.0031958354742 60 L 18.3151282831842 60 C 20.57776306861811 56.976324682030715 22.996357482540237 54.04404037150943 25.603195835474203 51.3 C 28.303195835474202 48.4 31.303195835474202 45.7 34.5031958354742 43.4 C 37.9031958354742 41 41.6031958354742 39.1 45.5031958354742 37.7 C 48.9031958354742 36.6 52.4031958354742 36 56.0031958354742 36 C 59.4031958354742 36 62.8031958354742 36.7 65.90319583547421 38 C 68.8031958354742 39.2 71.5031958354742 41 73.6031958354742 43.3 C 75.8031958354742 45.6 77.7031958354742 48.2 79.1031958354742 51.1 C 81.2031958354742 55.5 82.90319583547421 60.2 84.1031958354742 65 C 84.40319583547421 66 85.0031958354742 66.9 85.90319583547421 67.4 C 86.90319583547421 68 87.90319583547421 68.1 89.0031958354742 67.9 C 90.0031958354742 67.6 90.90319583547421 67 91.40319583547421 66.1 C 92.0031958354742 65.1 92.1031958354742 64.1 91.90319583547421 63 C 90.5031958354742 57.7 88.7031958354742 52.5 86.2031958354742 47.6 C 84.5031958354742 44 82.2031958354742 40.7 79.40319583547421 37.8 C 76.5031958354742 34.7 72.90319583547421 32.2 69.0031958354742 30.6 C 64.90319583547421 28.9 60.4031958354742 28 56.0031958354742 28 C 51.6031958354742 28 47.1031958354742 28.7 42.9031958354742 30.2 C 38.3031958354742 31.8 33.9031958354742 34 29.803195835474202 36.9 C 26.2031958354742 39.5 22.803195835474202 42.5 19.7031958354742 45.9 C 16.98785691465525 48.818989339880375 14.41076297111594 51.9223053161336 12.003195835474202 55.14738426752 Z " fill="white" stroke="none"/></mask><path d=" M 12.003195835474202 55.14738426752 L 12.003195835474202 40 C 12.003195835474202 38.9 11.603195835474201 37.9 10.803195835474202 37.2 C 10.103195835474201 36.4 9.103195835474201 36 8.003195835474202 36 C 6.903195835474202 36 5.903195835474202 36.4 5.203195835474202 37.2 C 4.403195835474202 37.9 4.003195835474202 38.9 4.003195835474202 40 L 4.003195835474202 62 C 4.003195835474202 63.6 4.603195835474201 65.1 5.8031958354742015 66.2 C 6.903195835474202 67.4 8.403195835474202 68 10.003195835474202 68 L 32.0031958354742 68 C 33.1031958354742 68 34.1031958354742 67.6 34.8031958354742 66.8 C 35.6031958354742 66.1 36.0031958354742 65.1 36.0031958354742 64 C 36.0031958354742 62.9 35.6031958354742 61.9 34.8031958354742 61.2 C 34.1031958354742 60.4 33.1031958354742 60 32.0031958354742 60 L 18.3151282831842 60 C 20.57776306861811 56.976324682030715 22.996357482540237 54.04404037150943 25.603195835474203 51.3 C 28.303195835474202 48.4 31.303195835474202 45.7 34.5031958354742 43.4 C 37.9031958354742 41 41.6031958354742 39.1 45.5031958354742 37.7 C 48.9031958354742 36.6 52.4031958354742 36 56.0031958354742 36 C 59.4031958354742 36 62.8031958354742 36.7 65.90319583547421 38 C 68.8031958354742 39.2 71.5031958354742 41 73.6031958354742 43.3 C 75.8031958354742 45.6 77.7031958354742 48.2 79.1031958354742 51.1 C 81.2031958354742 55.5 82.90319583547421 60.2 84.1031958354742 65 C 84.40319583547421 66 85.0031958354742 66.9 85.90319583547421 67.4 C 86.90319583547421 68 87.90319583547421 68.1 89.0031958354742 67.9 C 90.0031958354742 67.6 90.90319583547421 67 91.40319583547421 66.1 C 92.0031958354742 65.1 92.1031958354742 64.1 91.90319583547421 63 C 90.5031958354742 57.7 88.7031958354742 52.5 86.2031958354742 47.6 C 84.5031958354742 44 82.2031958354742 40.7 79.40319583547421 37.8 C 76.5031958354742 34.7 72.90319583547421 32.2 69.0031958354742 30.6 C 64.90319583547421 28.9 60.4031958354742 28 56.0031958354742 28 C 51.6031958354742 28 47.1031958354742 28.7 42.9031958354742 30.2 C 38.3031958354742 31.8 33.9031958354742 34 29.803195835474202 36.9 C 26.2031958354742 39.5 22.803195835474202 42.5 19.7031958354742 45.9 C 16.98785691465525 48.818989339880375 14.41076297111594 51.9223053161336 12.003195835474202 55.14738426752 Z " fill="none" stroke="none" stroke-width="16" mask="url(#_mask_MXCrWpzJPAyXwgyG8DVaVyBl5Ivdu2Ie)"/></svg>

<svg xmlns="http://www.w3.org/2000/svg" width="96" height="96"><path d="M12.003 55.147V40c0-1.1-.4-2.1-1.2-2.8-.7-.8-1.7-1.2-2.8-1.2-1.1 0-2.1.4-2.8 1.2-.8.7-1.2 1.7-1.2 2.8v22c0 1.6.6 3.1 1.8 4.2 1.1 1.2 2.6 1.8 4.2 1.8h22c1.1 0 2.1-.4 2.8-1.2.8-.7 1.2-1.7 1.2-2.8 0-1.1-.4-2.1-1.2-2.8-.7-.8-1.7-1.2-2.8-1.2H18.315c2.263-3.024 4.681-5.956 7.288-8.7 2.7-2.9 5.7-5.6 8.9-7.9 3.4-2.4 7.1-4.3 11-5.7 3.4-1.1 6.9-1.7 10.5-1.7 3.4 0 6.8.7 9.9 2 2.9 1.2 5.6 3 7.7 5.3 2.2 2.3 4.1 4.9 5.5 7.8 2.1 4.4 3.8 9.1 5 13.9.3 1 .9 1.9 1.8 2.4 1 .6 2 .7 3.1.5 1-.3 1.9-.9 2.4-1.8.6-1 .7-2 .5-3.1-1.4-5.3-3.2-10.5-5.7-15.4-1.7-3.6-4-6.9-6.8-9.8-2.9-3.1-6.5-5.6-10.4-7.2-4.1-1.7-8.6-2.6-13-2.6s-8.9.7-13.1 2.2c-4.6 1.6-9 3.8-13.1 6.7-3.6 2.6-7 5.6-10.1 9a111.715 111.715 0 0 0-7.7 9.247z" fill="#454545"/></svg>
